static/assets/images/exchanges/indoex.svg

<svg width="259" height="256" viewBox="0 0 259 256" fill="none" xmlns="http://www.w3.org/2000/svg">
<path d="M128.157 0H129.101C139.007 0.314496 148.757 1.41522 158.349 3.77395C178.477 8.33414 197.189 17.769 213.071 30.8206C226.752 42.7715 237.759 57.3956 245.622 73.7494C253.956 90.7322 258.201 109.445 258.044 128.315L128.472 128.157V89.4742L211.499 89.3169C209.455 85.0712 207.096 81.14 204.58 77.2088C194.988 63.2137 181.622 52.2064 165.897 45.602C154.26 40.57 141.681 37.8968 128.943 37.7396C128.629 24.8452 128.157 12.4226 128.157 0Z" fill="#2ABA4C"/>
<path d="M74.5356 5.03195C85.3857 3.14497 96.7076 10.0639 101.111 20.1278C103.784 26.4177 103.627 33.3366 100.953 39.6265C97.3366 46.86 90.5749 52.0492 82.7125 53.4644C76.2654 54.8796 69.6609 53.4644 64.3145 49.6904C61.7985 47.4889 59.1253 45.602 57.3956 42.7715C54.4079 38.0541 53.1499 32.3931 53.7789 26.8894C54.7224 18.7125 59.7543 10.8501 67.3022 7.39067C69.5037 6.28993 72.0197 5.50369 74.5356 5.03195ZM0.157246 122.496C1.25798 90.2604 14.7813 59.7543 37.8968 37.2678C46.7027 46.0737 55.5086 55.0369 64.1572 64C56.7666 72.3342 50.7912 81.7691 46.231 91.9902C39.312 107.872 35.8526 125.641 39.1548 142.781C41.0418 154.26 45.2875 165.268 51.4201 175.174C56.1376 182.408 61.7985 189.012 68.2457 194.83C72.6486 198.762 77.3661 202.064 82.398 205.052C90.8894 210.241 100.01 214.329 109.445 217.002C109.445 229.268 108.973 241.533 108.973 253.799L108.816 254.113C94.5061 251.44 80.6683 246.565 67.6167 239.803C54.7224 232.885 42.9288 223.921 33.0221 213.229C29.0909 208.826 25.4742 204.108 22.0147 199.391C7.70516 178.634 0.471745 153.317 0 128.157L0.157246 122.496Z" fill="#2ABA4C"/>
<path d="M219.204 137.435C232.098 134.447 244.993 131.302 257.887 128.472C257.73 150.015 252.383 171.086 242.162 190.113C234.929 203.479 225.337 215.273 213.7 225.179C209.455 228.639 205.877 231.45 200.491 234.929C175.974 250.764 153.317 255.371 128.786 256V219.204C141.366 219.047 153.946 216.373 165.425 211.656C172.816 208.511 179.892 204.265 186.025 199.233C192.157 194.201 197.504 188.383 201.907 181.779C211.027 168.413 215.902 152.845 219.204 137.435Z" fill="white"/>
</svg>

<svg xmlns="http://www.w3.org/2000/svg" fill="none" viewBox="0 0 259 256"><path fill="#2ABA4C" d="M128.157 0h.944c9.906.314 19.656 1.415 29.248 3.774 20.128 4.56 38.84 13.995 54.722 27.047 13.681 11.95 24.688 26.575 32.551 42.928a121.65 121.65 0 0 1 12.422 54.566l-129.572-.158V89.474l83.027-.157c-2.044-4.246-4.403-8.177-6.919-12.108-9.592-13.995-22.958-25.003-38.683-31.607a96.2 96.2 0 0 0-36.954-7.862c-.314-12.895-.786-25.317-.786-37.74M74.536 5.032c10.85-1.887 22.172 5.032 26.575 15.096 2.673 6.29 2.516 13.209-.158 19.499-3.616 7.233-10.378 12.422-18.24 13.837-6.448 1.416-13.052 0-18.398-3.774-2.517-2.201-5.19-4.088-6.92-6.918-2.987-4.718-4.245-10.379-3.616-15.883.943-8.177 5.975-16.039 13.523-19.498 2.202-1.101 4.718-1.887 7.234-2.359M.157 122.496a124.8 124.8 0 0 1 37.74-85.228A2105 2105 0 0 1 64.157 64c-7.39 8.334-13.366 17.77-17.926 27.99-6.919 15.882-10.378 33.651-7.076 50.791 1.887 11.479 6.133 22.487 12.265 32.393a100.3 100.3 0 0 0 16.826 19.656c4.403 3.932 9.12 7.234 14.152 10.222 8.491 5.189 17.612 9.277 27.047 11.95 0 12.266-.472 24.531-.472 36.797l-.157.314c-14.31-2.673-28.148-7.548-41.2-14.31-12.894-6.918-24.687-15.882-34.594-26.574-3.931-4.403-7.548-9.121-11.007-13.838C7.705 178.634.472 153.317 0 128.157z"/><path fill="#fff" d="M219.204 137.435c12.894-2.988 25.789-6.133 38.683-8.963-.157 21.543-5.504 42.614-15.725 61.641-7.233 13.366-16.825 25.16-28.462 35.066-4.245 3.46-7.823 6.271-13.209 9.75-24.517 15.835-47.174 20.442-71.705 21.071v-36.796c12.58-.157 25.16-2.831 36.639-7.548 7.391-3.145 14.467-7.391 20.6-12.423 6.132-5.032 11.479-10.85 15.882-17.454 9.12-13.366 13.995-28.934 17.297-44.344"/></svg>
